src/assets/images/icons/commute.svg

<?xml version="1.0" encoding="utf-8"?>
<svg width="28" height="26" viewBox="0 0 28 26" fill="none" xmlns="http://www.w3.org/2000/svg">
<path d="M0 24.7695C0 25.0347 0.105357 25.2891 0.292893 25.4766C0.48043 25.6642 0.734784 25.7695 1 25.7695H5C5.26522 25.7695 5.51957 25.6642 5.70711 25.4766C5.89464 25.2891 6 25.0347 6 24.7695V21.7695H0V24.7695Z" fill="#1F3D56"/>
<path d="M22 24.7695C22 25.0347 22.1054 25.2891 22.2929 25.4766C22.4804 25.6642 22.7348 25.7695 23 25.7695H27C27.2652 25.7695 27.5196 25.6642 27.7071 25.4766C27.8946 25.2891 28 25.0347 28 24.7695V21.7695H22V24.7695Z" fill="#1F3D56"/>
<path d="M25.9 9.25853L24.16 2.28553C24.052 1.8525 23.8023 1.46804 23.4505 1.19332C23.0988 0.918608 22.6653 0.769431 22.219 0.769531H5.781C5.33488 0.769655 4.9016 0.918934 4.55008 1.19363C4.19855 1.46833 3.94896 1.85267 3.841 2.28553L2.1 9.25853L0.586 11.7695C0.212011 12.1453 0.0014221 12.6534 0 13.1835V19.7695H28V13.1835C27.9986 12.6534 27.788 12.1453 27.414 11.7695L25.9 9.25853ZM5.781 2.76953H22.219L23.719 8.76953H4.281L5.781 2.76953ZM5.5 16.7695C5.20333 16.7695 4.91332 16.6816 4.66664 16.5167C4.41997 16.3519 4.22771 16.1176 4.11418 15.8436C4.00065 15.5695 3.97094 15.2679 4.02882 14.9769C4.0867 14.6859 4.22956 14.4187 4.43934 14.2089C4.64912 13.9991 4.91639 13.8562 5.20736 13.7984C5.49834 13.7405 5.79994 13.7702 6.07403 13.8837C6.34811 13.9972 6.58238 14.1895 6.7472 14.4362C6.91203 14.6828 7 14.9729 7 15.2695C7 15.6674 6.84196 16.0489 6.56066 16.3302C6.27936 16.6115 5.89782 16.7695 5.5 16.7695ZM22.5 16.7695C22.2033 16.7695 21.9133 16.6816 21.6666 16.5167C21.42 16.3519 21.2277 16.1176 21.1142 15.8436C21.0007 15.5695 20.9709 15.2679 21.0288 14.9769C21.0867 14.6859 21.2296 14.4187 21.4393 14.2089C21.6491 13.9991 21.9164 13.8562 22.2074 13.7984C22.4983 13.7405 22.7999 13.7702 23.074 13.8837C23.3481 13.9972 23.5824 14.1895 23.7472 14.4362C23.912 14.6828 24 14.9729 24 15.2695C24 15.6674 23.842 16.0489 23.5607 16.3302C23.2794 16.6115 22.8978 16.7695 22.5 16.7695Z" fill="#1F3D56"/>
</svg>

<svg width="28" height="26" fill="none" xmlns="http://www.w3.org/2000/svg"><path d="M0 24.77a1 1 0 001 1h4a1 1 0 001-1v-3H0v3zM22 24.77a1 1 0 001 1h4a1 1 0 001-1v-3h-6v3zM25.9 9.259l-1.74-6.973A2 2 0 0022.219.77H5.781a2 2 0 00-1.94 1.516L2.1 9.259l-1.514 2.51A2.012 2.012 0 000 13.184v6.586h28v-6.586a2.012 2.012 0 00-.586-1.414L25.9 9.259zM5.781 2.769h16.438l1.5 6H4.281l1.5-6zm-.281 14a1.5 1.5 0 110-2.998 1.5 1.5 0 010 2.998zm17 0a1.5 1.5 0 110-2.999 1.5 1.5 0 010 3z" fill="#1F3D56"/></svg>
